icons/ico_heart_nc.svg

<svg width="21.088867" height="18.979980" viewBox="0 0 21.0889 18.98" fill="none" xmlns="http://www.w3.org/2000/svg" xmlns:xlink="http://www.w3.org/1999/xlink">
	<desc>
			Created with Pixso.
	</desc>
	<path d="M20.9869 4.9292C20.833 4.25122 20.6062 3.60498 20.2607 3.00049C19.6962 2.01245 18.928 1.23486 17.928 0.696777C17.2292 0.320312 16.4836 0.114014 15.6918 0.0407715C14.5758 -0.0620117 13.5358 0.1604 12.5623 0.706055C11.8275 1.11768 11.2096 1.6687 10.6948 2.33813C10.5541 2.52148 10.5386 2.51855 10.3934 2.33887C10.0945 1.96875 9.77954 1.61523 9.40906 1.31348C7.82202 0.0192871 6.03613 -0.317627 4.10913 0.298828C2.2146 0.905273 0.994507 2.24463 0.327148 4.11108C0.138306 4.63916 0.0430908 5.18628 0 5.74414L0 5.95142L0 6.11719L0 6.69727L0 6.86304L0 7.15332C0.0611572 7.41406 0.050415 7.68457 0.111084 7.94678C0.375488 9.08984 0.902222 10.1067 1.59131 11.0408C2.28381 11.9802 3.07971 12.8245 3.93335 13.6191C4.54749 14.1904 5.16724 14.7556 5.79956 15.3057C7.04944 16.3933 8.3136 17.4639 9.55444 18.5615C10.1764 19.1121 10.9254 19.1279 11.5316 18.5583C11.5867 18.5068 11.6417 18.4551 11.6995 18.4058C12.5389 17.6951 13.3623 16.9658 14.1974 16.25C15.0112 15.552 15.8141 14.8413 16.6118 14.1248C17.4983 13.3284 18.3411 12.49 19.0952 11.5657C19.8496 10.6406 20.4641 9.63379 20.8325 8.48657C20.972 8.052 21.0422 7.60522 21.0889 7.15332L21.0889 6.94604L21.0889 6.78003L21.0889 6.19995L21.0889 6.03418L21.0889 5.78564C21.0298 5.50342 21.0513 5.21289 20.9869 4.9292L20.9869 4.9292Z" fill-rule="evenodd" fill="#FEF6F8"/>
	<defs/>
</svg>

<svg xmlns="http://www.w3.org/2000/svg" width="21.089" height="18.98" viewBox="0 0 21.089 18.98">
  <path id="ico_heart_nc" d="M20.987,4.929A6.938,6.938,0,0,0,20.261,3,5.839,5.839,0,0,0,17.928.7,5.768,5.768,0,0,0,15.692.041a5.264,5.264,0,0,0-3.13.665,6.114,6.114,0,0,0-1.867,1.632c-.141.183-.156.18-.3,0a6.822,6.822,0,0,0-.984-1.025A5.366,5.366,0,0,0,4.109.3,5.8,5.8,0,0,0,.327,4.111,6.243,6.243,0,0,0,0,5.744V7.153c.061.261.05.531.111.793a8.374,8.374,0,0,0,1.48,3.094,18.709,18.709,0,0,0,2.342,2.578c.614.571,1.234,1.137,1.866,1.687,1.25,1.088,2.514,2.158,3.755,3.256a1.373,1.373,0,0,0,1.977,0c.055-.052.11-.1.168-.153.839-.711,1.663-1.44,2.5-2.156q1.221-1.047,2.414-2.125A23.06,23.06,0,0,0,19.1,11.566a9.439,9.439,0,0,0,1.737-3.079,6.526,6.526,0,0,0,.256-1.333V5.786c-.059-.282-.038-.573-.1-.856Z" fill="#ddd" fill-rule="evenodd"/>
</svg>
